UI/POI/SVG/car-charging_outline_24px.svg

<svg width="24" height="24" viewBox="0 0 24 24" fill="none" xmlns="http://www.w3.org/2000/svg">
<path d="M22.0001 11H19.4501L18.5901 9.82C18.4037 9.57258 18.164 9.37036 17.8887 9.22839C17.6134 9.08642 17.3097 9.00835 17.0001 9V11.05L19.2901 14.18L20.0001 15.18V20H18.0001V18H6.00005V20H4.00005V15.16L4.71005 14.16L7.00005 11.05V9C6.69043 9.00835 6.38668 9.08642 6.11139 9.22839C5.83611 9.37036 5.59638 9.57258 5.41005 9.82L4.55005 11H2.00005V13H3.10005L2.33005 14.06C2.11312 14.348 1.99714 14.6995 2.00005 15.06V20C2.00005 20.5304 2.21077 21.0391 2.58584 21.4142C2.96091 21.7893 3.46962 22 4.00005 22H7.00005C7.26527 22 7.51962 21.8946 7.70716 21.7071C7.8947 21.5196 8.00005 21.2652 8.00005 21V20H16.0001V21C16.0001 21.2652 16.1054 21.5196 16.2929 21.7071C16.4805 21.8946 16.7348 22 17.0001 22H20.0001C20.5305 22 21.0392 21.7893 21.4143 21.4142C21.7893 21.0391 22.0001 20.5304 22.0001 20V15.06C22.003 14.6995 21.887 14.348 21.6701 14.06L20.9001 13H22.0001V11ZM18.0001 16H6.00005L7.50005 14H16.5001L18.0001 16ZM13.0001 10V12H11.0001V10C10.4696 10 9.96091 9.78929 9.58584 9.41421C9.21077 9.03914 9.00005 8.53043 9.00005 8V6H15.0001V8C15.0001 8.53043 14.7893 9.03914 14.4143 9.41421C14.0392 9.78929 13.5305 10 13.0001 10ZM15.0001 4H13.0001V2H15.0001V4ZM11.0001 4H9.00005V2H11.0001V4Z" fill="#0F1621"/>
</svg>

<svg xmlns="http://www.w3.org/2000/svg" width="24" height="24" viewBox="0 0 24 24"><rect width="24" height="24" style="fill:none"/><path d="M22,11H19.45l-.86-1.18A2.06,2.06,0,0,0,17,9v2.05l2.29,3.13.71,1V20H18V18H6v2H4V15.16l.71-1L7,11.05V9a2.06,2.06,0,0,0-1.59.82L4.55,11H2v2H3.1l-.77,1.06a1.64,1.64,0,0,0-.33,1V20a2,2,0,0,0,2,2H7a1,1,0,0,0,1-1V20h8v1a1,1,0,0,0,1,1h3a2,2,0,0,0,2-2V15.06a1.64,1.64,0,0,0-.33-1L20.9,13H22Zm-4,5H6l1.5-2h9Zm-5-6h0v2H11V10h0A2,2,0,0,1,9,8V6h6V8A2,2,0,0,1,13,10Zm2-6H13V2h2ZM11,4H9V2h2Z"/></svg>
